X:140
T:Lady Burdett. RHu.140
S:R.Hughes MS,1823,Whitchurch,Shrops.
A:Whitchurch, Shropshire
Z:Tony Weatherall 2006
M:6/8
L:1/8
Q:3/8=120
R:Jig
K:G
d|dba gfe|(d3B2) d|cBc ABc|(d3B2) d|!
dba gfe|(d3B2)d|cBc AGF|G3G2:|!
d|cBc ABc|d^cd B2g|fga d2f|gab d2B|!
cBc ABc|def gab|a2b agf|g2bg2:|

